assets/img/ods/SDG-14.svg

<svg width="720" height="720" viewBox="0 0 720 720" fill="none" xmlns="http://www.w3.org/2000/svg">
<g clip-path="url(#clip0_342_20)">
<path d="M-1.08008 -1.08008H721.08V721.08H-1.08008V-1.08008Z" fill="#BBBBBB"/>
<path d="M49.12 88.9299C45 91.1399 33.31 94.3699 29.23 96.4099V76.8599C34.67 74.6499 49.8 67.3399 54.9 61.7299H75.47V199.43H49.12V88.9299ZM118 167.13H76.15V146.73L112.02 61.7299H142.45V147.24H155.88V167.13H142.45V199.43H118V167.13ZM118 147.24V88.7599L96.89 147.24H118ZM227.26 61.6299H235.71L242.71 98.8699L249.27 61.6299H257.92L247.32 114.28H237.9L227.26 61.6299ZM261.58 61.6299H271.07V114.28H261.58V61.6299ZM277.25 61.6299H289.66C302.47 61.6299 306.37 66.7599 306.37 78.0099V97.1799C306.37 108.75 302.37 114.28 290.05 114.28H277.25V61.6299ZM289.79 107.58C296.36 107.58 296.62 104.07 296.62 97.5099V77.3599C296.62 71.0499 295.97 68.4499 289.62 68.4499H286.8V107.58H289.79ZM319 61.6299H329.27L339.8 114.28H330.89L328.81 102.12H319.65L317.5 114.28H308.5L319 61.6299ZM327.75 95.9999L324.18 73.8999L320.6 95.9999H327.75ZM356.93 61.6299H363.63L376.43 91.6299V61.6299H384.37V114.28H378L365.12 82.8199V114.28H356.93V61.6299ZM398.27 61.6299H408.54L419.08 114.28H410.17L408.09 102.12H398.92L396.78 114.28H387.78L398.27 61.6299ZM407.05 95.9999L403.47 73.8999L399.9 95.9999H407.05ZM237.6 147.63H247.87L258.4 200.28H249.49L247.41 188.12H238.25L236.1 200.28H227.1L237.6 147.63ZM246.37 182L242.8 159.9L239.22 182H246.37ZM244 131H253L245.27 144H240.13L244 131ZM260.35 182.92V165.24C260.35 153.93 263.79 147.04 275.35 147.04C286.14 147.04 289.91 152.63 289.91 162.38V165.11H280.75V162.11C280.75 157.04 280.23 154.05 275.48 154.05C270.41 154.05 270.02 158.15 270.02 162.96V184.96C270.02 190.42 271.02 193.87 275.74 193.87C280.46 193.87 281.53 190.23 281.53 184.51V179.57H275.87V173.52H290.17V200.24H283.93L283.28 195.1C282.63 196.907 281.411 198.454 279.806 199.509C278.201 200.564 276.297 201.07 274.38 200.95C264 201 260.35 194 260.35 182.92ZM295.19 183.25V147.63H304.55V184.35C304.55 189.35 305.13 193.84 310.01 193.84C314.89 193.84 315.53 189.36 315.53 184.35V147.63H324.83V183.25C324.83 194.3 321.77 200.99 310.01 200.99C298.25 200.99 295.19 194.3 295.19 183.25ZM338 147.63H348.27L358.8 200.28H349.9L347.82 188.12H338.65L336.51 200.28H327.51L338 147.63ZM346.8 182L343.22 159.9L339.65 182H346.8ZM554.28 526.59C545.15 514.26 486.17 439.06 403.48 439.06C331.68 439.06 254.87 504.19 254.87 504.19C254.87 504.19 226 445.13 167 439.46C166.66 439.46 166.29 439.38 165.9 439.38H165.53C164.93 439.417 164.366 439.678 163.949 440.112C163.533 440.545 163.294 441.119 163.28 441.72C163.453 442.49 163.764 443.222 164.2 443.88C171.81 456.51 191.2 492.44 191.2 528.34C191.2 564.24 171.67 600.34 164.14 612.96L163.63 613.76C163.392 614.13 163.263 614.56 163.26 615C163.263 615.591 163.49 616.16 163.894 616.592C164.298 617.023 164.85 617.287 165.44 617.33L166.07 617.27C166.276 617.294 166.484 617.294 166.69 617.27C225.9 611.75 254.86 552.51 254.86 552.51C254.86 552.51 331.67 617.64 403.47 617.64C486.16 617.64 545.14 542.45 554.27 530.14C554.52 529.81 554.72 529.51 554.9 529.29C555.025 529.006 555.09 528.7 555.09 528.39C555.09 528.08 555.025 527.773 554.9 527.49C554.72 527.24 554.52 526.95 554.27 526.64M449.46 537.84C444.689 537.834 440.027 536.414 436.063 533.759C432.099 531.105 429.011 527.335 427.189 522.926C425.367 518.516 424.893 513.666 425.827 508.988C426.76 504.309 429.06 500.012 432.435 496.64C435.809 493.268 440.108 490.972 444.787 490.043C449.467 489.113 454.317 489.591 458.724 491.417C463.132 493.242 466.899 496.334 469.551 500.3C472.202 504.266 473.618 508.929 473.62 513.7C473.62 516.872 472.995 520.012 471.781 522.943C470.566 525.873 468.786 528.535 466.542 530.776C464.299 533.018 461.635 534.796 458.704 536.008C455.773 537.22 452.632 537.843 449.46 537.84ZM249.45 371.66C249.623 371.41 249.836 371.191 250.08 371.01C250.464 370.745 250.914 370.592 251.38 370.57C251.986 370.569 252.567 370.806 253 371.23C253.029 371.271 253.067 371.305 253.11 371.33C298.18 414.33 345.47 379.47 355.31 371.33L356.31 370.41C356.595 370.304 356.897 370.253 357.2 370.26C357.54 370.246 357.879 370.297 358.2 370.41L359.2 371.33C369.03 379.47 416.3 414.33 461.39 371.33C461.39 371.33 461.44 371.27 461.48 371.23C461.902 370.808 462.473 370.57 463.07 370.57C463.54 370.584 463.996 370.737 464.38 371.01C464.639 371.187 464.865 371.407 465.05 371.66C473.79 380.26 511.54 412.77 551.49 378.05C551.712 377.834 551.888 377.576 552.008 377.291C552.129 377.006 552.19 376.699 552.19 376.39V359.89C552.193 359.58 552.134 359.272 552.017 358.984C551.9 358.697 551.727 358.436 551.509 358.215C551.29 357.995 551.03 357.82 550.744 357.701C550.458 357.581 550.15 357.52 549.84 357.52C549.667 357.539 549.497 357.572 549.33 357.62L548.13 358.22C535.86 364.38 497.77 378.97 463.22 346.31C462.9 346 462.56 345.7 462.22 345.36C461.914 345.193 461.568 345.114 461.22 345.13C460.968 345.125 460.72 345.188 460.5 345.31C460.002 345.438 459.572 345.753 459.3 346.19C449.01 354.03 401.73 386.05 359.62 346.77L359 346.15C358.538 345.715 357.924 345.478 357.29 345.49C356.678 345.486 356.089 345.723 355.65 346.15L355 346.77C312.92 386.05 265.59 354.03 255.3 346.19C255.045 345.755 254.628 345.439 254.14 345.31C253.906 345.187 253.644 345.125 253.38 345.13C253.032 345.114 252.686 345.193 252.38 345.36C252.05 345.7 251.71 346 251.38 346.31C216.83 378.97 178.77 364.38 166.49 358.22L165.28 357.62C165.129 357.576 164.975 357.543 164.82 357.52C164.508 357.519 164.2 357.579 163.911 357.698C163.623 357.816 163.362 357.991 163.141 358.211C162.921 358.431 162.746 358.693 162.628 358.981C162.509 359.269 162.449 359.578 162.45 359.89V376.39C162.446 376.698 162.504 377.004 162.621 377.289C162.738 377.574 162.911 377.833 163.13 378.05C203.05 412.77 240.85 380.26 249.59 371.66M165.13 297.73C164.984 297.681 164.833 297.647 164.68 297.63C164.367 297.631 164.057 297.694 163.768 297.816C163.479 297.937 163.217 298.115 162.996 298.338C162.776 298.561 162.602 298.825 162.484 299.115C162.367 299.406 162.307 299.716 162.31 300.03V316.48C162.303 316.797 162.361 317.112 162.479 317.406C162.598 317.7 162.775 317.966 163 318.19C202.91 352.87 240.7 320.37 249.45 311.79C249.605 311.521 249.821 311.291 250.08 311.12C250.462 310.853 250.914 310.704 251.38 310.69C251.978 310.683 252.556 310.908 252.99 311.32C253.02 311.364 253.061 311.399 253.11 311.42C298.19 354.42 345.47 319.6 355.3 311.42L356.3 310.54C356.583 310.414 356.89 310.353 357.2 310.36C357.523 310.351 357.843 310.412 358.14 310.54L359.14 311.42C368.97 319.6 416.25 354.42 461.33 311.42C461.33 311.42 461.39 311.37 461.42 311.32C461.851 310.909 462.425 310.683 463.02 310.69C463.49 310.7 463.946 310.849 464.33 311.12C464.595 311.294 464.82 311.522 464.99 311.79C473.73 320.37 511.48 352.87 551.43 318.19C551.653 317.965 551.829 317.698 551.947 317.404C552.066 317.111 552.125 316.796 552.12 316.48V300C552.125 299.688 552.069 299.379 551.954 299.089C551.839 298.799 551.668 298.535 551.45 298.312C551.233 298.089 550.973 297.911 550.686 297.789C550.4 297.667 550.092 297.602 549.78 297.6C549.607 297.614 549.436 297.647 549.27 297.7C548.9 297.91 548.51 298.11 548.07 298.32C535.79 304.47 497.72 319.1 463.16 286.4C462.83 286.09 462.49 285.79 462.16 285.4C461.845 285.259 461.505 285.184 461.16 285.18C460.917 285.195 460.676 285.232 460.44 285.29C459.958 285.482 459.542 285.808 459.24 286.23C448.94 294.08 401.67 326.08 359.56 286.81L358.95 286.21C358.485 285.774 357.877 285.521 357.24 285.5C356.621 285.526 356.034 285.779 355.59 286.21L354.94 286.81C312.86 326.08 265.53 294.08 255.24 286.23C254.955 285.805 254.546 285.477 254.07 285.29C253.824 285.232 253.573 285.195 253.32 285.18C252.976 285.188 252.636 285.263 252.32 285.4C252.005 285.751 251.671 286.085 251.32 286.4C216.76 319.1 178.7 304.47 166.42 298.32C165.99 298.11 165.58 297.91 165.2 297.7" fill="white"/>
</g>
<defs>
<clipPath id="clip0_342_20">
<rect width="720" height="720" fill="white"/>
</clipPath>
</defs>
</svg>

<svg xmlns="http://www.w3.org/2000/svg" viewBox="0 0 720 720"><defs><style>.cls-2{fill:#fff}</style></defs><path fill="#0a97d9" d="M-1.08-1.08h722.16v722.16H-1.08z" id="goal_background" data-name="goal background"/><g id="ENG_text_graphics" data-name="ENG text &amp; graphics"><path class="cls-2" d="M49.12 88.93c-4.12 2.21-15.81 5.44-19.89 7.48V76.86c5.44-2.21 20.57-9.52 25.67-15.13h20.57v137.7H49.12zM118 167.13H76.15v-20.4l35.87-85h30.43v85.51h13.43v19.89h-13.43v32.3H118zm0-19.89V88.76l-21.11 58.48zM227.26 61.63h8.45l7 37.24 6.56-37.24h8.65l-10.6 52.65h-9.42zM261.58 61.63h9.49v52.65h-9.49zM277.25 61.63h12.41c12.81 0 16.71 5.13 16.71 16.38v19.17c0 11.57-4 17.1-16.32 17.1h-12.8zm12.54 45.95c6.57 0 6.83-3.51 6.83-10.07V77.36c0-6.31-.65-8.91-7-8.91h-2.82v39.13zM319 61.63h10.27l10.53 52.65h-8.91l-2.08-12.16h-9.16l-2.15 12.16h-9zM327.75 96l-3.57-22.1L320.6 96zM356.93 61.63h6.7l12.8 30v-30h7.94v52.65H378l-12.88-31.46v31.46h-8.19zM398.27 61.63h10.27l10.54 52.65h-8.91l-2.08-12.16h-9.17l-2.14 12.16h-9zM407.05 96l-3.58-22.1L399.9 96zM237.6 147.63h10.27l10.53 52.65h-8.91l-2.08-12.16h-9.16l-2.15 12.16h-9zm8.77 34.37l-3.57-22.1-3.58 22.1zM244 131h9l-7.73 13h-5.14zM260.35 182.92v-17.68c0-11.31 3.44-18.2 15-18.2 10.79 0 14.56 5.59 14.56 15.34v2.73h-9.16v-3c0-5.07-.52-8.06-5.27-8.06-5.07 0-5.46 4.1-5.46 8.91v22c0 5.46 1 8.91 5.72 8.91s5.79-3.64 5.79-9.36v-4.94h-5.66v-6.05h14.3v26.72h-6.24l-.65-5.14a8.87 8.87 0 01-8.9 5.85c-10.38.05-14.03-6.95-14.03-18.03zM295.19 183.25v-35.62h9.36v36.72c0 5 .58 9.49 5.46 9.49s5.52-4.48 5.52-9.49v-36.72h9.3v35.62c0 11.05-3.06 17.74-14.82 17.74s-14.82-6.69-14.82-17.74zM338 147.63h10.27l10.53 52.65h-8.9l-2.08-12.16h-9.17l-2.14 12.16h-9zm8.8 34.37l-3.58-22.1-3.57 22.1zM554.28 526.59c-9.13-12.33-68.11-87.53-150.8-87.53-71.8 0-148.61 65.13-148.61 65.13S226 445.13 167 439.46c-.34 0-.71-.08-1.1-.08h-.37a2.4 2.4 0 00-2.25 2.34 6.48 6.48 0 00.92 2.16c7.61 12.63 27 48.56 27 84.46s-19.53 72-27.06 84.62l-.51.8a2.32 2.32 0 00-.37 1.24 2.35 2.35 0 002.18 2.33l.63-.06a2.64 2.64 0 00.62 0c59.21-5.52 88.17-64.76 88.17-64.76s76.81 65.13 148.61 65.13c82.69 0 141.67-75.19 150.8-87.5.25-.33.45-.63.63-.85a2.23 2.23 0 000-1.8c-.18-.25-.38-.54-.63-.85m-104.81 11.2a24.13 24.13 0 1124.16-24.14 24.14 24.14 0 01-24.16 24.14M249.45 371.66a2.78 2.78 0 01.63-.65 2.5 2.5 0 011.3-.44 2.31 2.31 0 011.62.66.36.36 0 00.11.1c45.07 43 92.36 8.14 102.2 0l1-.92a2.41 2.41 0 01.89-.15 2.69 2.69 0 011 .15l1 .92c9.83 8.14 57.1 43 102.19 0 0 0 .05-.06.09-.1a2.25 2.25 0 011.59-.66 2.39 2.39 0 011.31.44 2.76 2.76 0 01.67.65c8.74 8.6 46.49 41.11 86.44 6.39a2.31 2.31 0 00.7-1.66v-16.5a2.35 2.35 0 00-2.35-2.37 3.06 3.06 0 00-.51.1l-1.2.6c-12.27 6.16-50.36 20.75-84.91-11.91-.32-.31-.66-.61-1-.95a1.91 1.91 0 00-1-.23 1.43 1.43 0 00-.72.18 2 2 0 00-1.2.88c-10.29 7.84-57.57 39.86-99.68.58l-.62-.62a2.43 2.43 0 00-1.71-.66 2.33 2.33 0 00-1.64.66l-.65.62c-42.08 39.28-89.41 7.26-99.7-.58a1.91 1.91 0 00-1.16-.88 1.58 1.58 0 00-.76-.18 1.91 1.91 0 00-1 .23c-.33.34-.67.64-1 .95-34.55 32.66-72.61 18.07-84.89 11.91l-1.21-.6a3.53 3.53 0 00-.46-.1 2.36 2.36 0 00-2.37 2.37v16.5a2.29 2.29 0 00.68 1.66c39.92 34.72 77.72 2.21 86.46-6.39M165.13 297.73a2.17 2.17 0 00-.45-.1 2.38 2.38 0 00-2.37 2.4v16.45a2.34 2.34 0 00.69 1.71c39.91 34.68 77.7 2.18 86.45-6.4a2 2 0 01.63-.67 2.4 2.4 0 011.3-.43 2.3 2.3 0 011.61.63.28.28 0 00.12.1c45.08 43 92.36 8.18 102.19 0l1-.88a2.1 2.1 0 01.9-.18 2.22 2.22 0 01.94.18l1 .88c9.83 8.18 57.11 43 102.19 0 0 0 .06-.05.09-.1a2.28 2.28 0 011.6-.63 2.36 2.36 0 011.31.43 2.22 2.22 0 01.66.67c8.74 8.58 46.49 41.08 86.44 6.4a2.38 2.38 0 00.69-1.71V300a2.36 2.36 0 00-2.34-2.4 2.3 2.3 0 00-.51.1c-.37.21-.76.41-1.2.62-12.28 6.15-50.35 20.78-84.91-11.92-.33-.31-.67-.61-1-1a2.53 2.53 0 00-1-.22 4.16 4.16 0 00-.72.11 2.71 2.71 0 00-1.2.94c-10.3 7.85-57.57 39.85-99.68.58l-.61-.6a2.63 2.63 0 00-1.71-.71 2.52 2.52 0 00-1.65.71l-.65.6c-42.08 39.27-89.41 7.27-99.7-.58a2.52 2.52 0 00-1.17-.94 4.37 4.37 0 00-.75-.11 2.68 2.68 0 00-1 .22 13 13 0 01-1 1c-34.56 32.7-72.62 18.07-84.9 11.92-.43-.21-.84-.41-1.22-.62"/></g></svg>
